src/Icon/svgs/notice.svg

<svg width="24" height="24" viewBox="0 0 24 24" fill="none" xmlns="http://www.w3.org/2000/svg">
<path fill-rule="evenodd" clip-rule="evenodd" d="M17 15V7.00002V4.76621L13.5145 6.85751C13.3591 6.95076 13.1812 7.00002 13 7.00002H12V15H13C13.1812 15 13.3591 15.0493 13.5145 15.1425L17 17.2338V15ZM19 7.12604C20.7252 7.57008 22 9.13618 22 11C22 12.8639 20.7252 14.43 19 14.874V19C19 19.7773 18.152 20.2574 17.4855 19.8575L12.723 17H12V22C12 22.5523 11.5523 23 11 23H7C6.44772 23 6 22.5523 6 22V16.6586C3.66962 15.8349 2 13.6125 2 11C2 7.68631 4.68629 5.00002 8 5.00002H12.723L17.4855 2.14253C18.152 1.74261 19 2.22272 19 3.00002V7.12604ZM19 9.26758V12.7325C19.5978 12.3866 20 11.7403 20 11C20 10.2597 19.5978 9.61339 19 9.26758ZM8 17V20.9999C8.1957 20.9974 8.86236 20.9975 10 21V17H8ZM10 15V7.00002H8C5.79086 7.00002 4 8.79088 4 11C4 13.2092 5.79086 15 8 15H10Z" fill="#1B1C1D"/>
</svg>

<svg xmlns="http://www.w3.org/2000/svg" width="24" height="24" fill="none"  xmlns:v="https://vecta.io/nano"><path fill-rule="evenodd" d="M17 15V7 4.766l-3.485 2.091A1 1 0 0 1 13 7h-1v8h1a1 1 0 0 1 .515.143L17 17.234V15zm2-7.874c1.725.444 3 2.01 3 3.874s-1.275 3.43-3 3.874V19a1 1 0 0 1-1.515.858L12.723 17H12v5a1 1 0 0 1-1 1H7a1 1 0 0 1-1-1v-5.341C3.67 15.835 2 13.613 2 11a6 6 0 0 1 6-6h4.723l4.762-2.857A1 1 0 0 1 19 3v4.126zm0 2.142v3.465a2 2 0 0 0 0-3.465zM8 17v4h2v-4H8zm2-2V7H8a4 4 0 0 0 0 8h2z" fill="#1b1c1d"/></svg>
